X:29
T:Marry Kettay
S:Petrie's Third Collection of Strathspey Reels and Country Dances &c.
Z:Steve Wyrick , 7/30/05
N:Petrie's Third Collection, page 12
L:1/8
M:C
R:Strathspey
K:G
g|:B<GG>A B>AB<g|B<GG>A Bg A2|B<GG>A B>AB<d|e<gd<g BgAc:|
Bd-de/f/ g>de>c|Bd-d e/f/ g>BA<c|Bd-de/f/ g<de>d|c<gB<g a>cA<c|
Bd-de/f/ g>de>d|Bd-de/f/ g>BA<c|Bd-de/f/ (3gag (3ege|d<gc<g B<gA<g|]
